X:112
T:Kintore House 
C:Joe Buchanan's Scottish Tome - Page 138.0
I:138 0
C:Marie Fielding
R:Jig
Z:Carl Allison
L:1/8
M:6/8
K:C
e| "Am"Aed e2 a | "Am"ged eAA | "G"B2 A AGG | "G"B<dg "E7"edB |
"Am"Aed e2 a | "Am"ged eAA | "G"B>dG Bdg | "E7"edB "Am"A2 :|
B/d/ | "Am"e2 d egg | "Am"fed eAa | "G"gfe dGG | "G"B>dg "E7"edB |
"Am"e2 d egg | "Am"fed e2 A | "G"B>dG Bdg | "E7"edB "Am"ABd |
"Am"e2 d egg | "Am"fed eAa | "G"gfe dGG | "G"B>dg "Am"edB |
"Am"Aed e2 a | "Am"ged eAA | "G"B>dG Bdg | "E7"edB "Am"A2 |]
e | "Am"A2 e ABB | "Am"Aag eAA | "G"B<dG Bdg | "E7"B>dg edB |
"Am"A2 e ABB | "Am"Aag eAA | "G"B<dG Bdg | "E7"edB "Am"A2 :|
e | "Am"a2 g e>aa | "Am"aAa agf | "G"gfe dGG | "Am"AGA "G"BAG |
"Am"A2 a g>ea | "Am"ged eAA | "G"B<dG Bdg | "E7"edB A2 e |
"Am"a2 g eaa | "Am"aAa agf | "G"gfe dGG | "Am"AGA "G"BAG |
"Am"Aed eaa | "Am"ged eAA | "G"B<dG Bdg | "E7"edB "Am"A2 |]

